X:30
T:Eggs on the Couch
M:6/8
L:1/8
C:© Paul Gitlitz 1989
R:Jig
B:Giblitz Fancy, 169 Brand New Old Time Fiddle Tunes Vol. 3, Canadian Fiddle Tunes Vol 1
N:Tinted goose eggs left in a compromising position.
D:"To Have and To Hold" available @ www.glitchless.net
K:D
"D"fdd fdf|"G"gfg efg|"D"fdd fdf|"A"Ace a^ga|!
"D"fdd fdf|"G"gfg efg|"A7"a^ga  ba=g|1"A7"edc "D"d2e:|2"A7"edc "D"d2c|!
|:"Bm"BFB BfB|"A"AEA  AeA|"Bm"BFB BfB|fgf "A"edc|!
"Bm" ~B3 BfB|"A" ~A3 Aag|"D"fdf aba|1"A7"gec "D"d2c:|2"A7"gec "D"d2|]
